packages/dnb-eufemia/assets/icons/attachment.svg

<svg width="16" height="16" viewBox="0 0 16 16" fill="none" xmlns="http://www.w3.org/2000/svg">
<path d="M15.25 11.1623L10.3713 6.15227C9.80873 5.57456 9.04567 5.25 8.25001 5.25C7.45436 5.25 6.6913 5.57456 6.12868 6.15227C5.56607 6.72999 5.25 7.51354 5.25 8.33055C5.25 9.14756 5.56607 9.93111 6.12868 10.5088L10.1358 14.623C10.3203 14.8192 10.541 14.9756 10.785 15.0833C11.029 15.1909 11.2914 15.2476 11.557 15.2499C11.8225 15.2523 12.0859 15.2003 12.3317 15.0971C12.5775 14.9938 12.8008 14.8413 12.9886 14.6485C13.1764 14.4557 13.3249 14.2264 13.4254 13.974C13.526 13.7216 13.5766 13.4512 13.5743 13.1785C13.572 12.9058 13.5168 12.6363 13.412 12.3857C13.3072 12.1352 13.1548 11.9086 12.9638 11.7191L8.95712 7.60263C8.76855 7.41555 8.51596 7.31201 8.25377 7.31431C7.99157 7.31661 7.74074 7.42456 7.55531 7.61491C7.36987 7.80527 7.26466 8.06279 7.26234 8.33203C7.26002 8.60126 7.36078 8.86066 7.5429 9.05436L11.55 13.1704M6.25 15H2C1.44772 15 1 14.5523 1 14V2C1 1.44772 1.44772 1 2 1H7.84813C8.14117 1 8.41946 1.12854 8.60946 1.35164L9.58741 2.5" stroke="black" stroke-width="1.5" stroke-linecap="round" stroke-linejoin="round"/>
</svg>

<svg width="16" height="16" viewBox="0 0 16 16" fill="none" xmlns="http://www.w3.org/2000/svg"><path d="m15.25 11.162-4.879-5.01A2.96 2.96 0 0 0 8.25 5.25a2.96 2.96 0 0 0-2.121.902 3.123 3.123 0 0 0-.879 2.179c0 .817.316 1.6.879 2.178l4.007 4.114a2 2 0 0 0 .649.46 1.954 1.954 0 0 0 2.204-.434 2.101 2.101 0 0 0-.025-2.93L8.957 7.603a.986.986 0 0 0-.703-.289.987.987 0 0 0-.699.3 1.04 1.04 0 0 0-.293.718c-.002.27.099.529.28.722l4.008 4.116M6.25 15H2a1 1 0 0 1-1-1V2a1 1 0 0 1 1-1h5.848a1 1 0 0 1 .761.352L9.587 2.5" stroke="#000" stroke-width="1.5" stroke-linecap="round" stroke-linejoin="round"/></svg>
